src/assets/svgs/paver.svg

<svg width="199" height="199" viewBox="0 0 199 199" fill="none" xmlns="http://www.w3.org/2000/svg">
<path d="M52.5956 84.8706C54.0622 84.8659 54.0622 84.8659 55.5584 84.8611C56.6219 84.8631 57.6854 84.8651 58.7811 84.8672C60.4069 84.8658 60.4069 84.8658 62.0654 84.8643C64.3621 84.8636 66.6588 84.8655 68.9554 84.8697C72.4846 84.875 76.0137 84.8697 79.5429 84.8633C81.7681 84.864 83.9934 84.8653 86.2186 84.8672C87.2822 84.8652 88.3457 84.8632 89.4414 84.8611C90.4191 84.8642 91.3968 84.8674 92.4042 84.8706C93.2694 84.8714 94.1347 84.8722 95.0261 84.873C96.9999 85 96.9999 85 97.9999 86C98.1003 88.6115 98.1361 91.1966 98.1293 93.8086C98.131 94.6265 98.1328 95.4443 98.1346 96.2869C98.139 99.0038 98.1361 101.721 98.1327 104.438C98.1334 106.317 98.1343 108.196 98.1356 110.076C98.1371 114.02 98.1349 117.965 98.1303 121.909C98.1246 126.977 98.1278 132.045 98.1338 137.113C98.1374 140.996 98.1363 144.878 98.1337 148.761C98.133 150.63 98.1339 152.499 98.1362 154.368C98.1387 156.976 98.1349 159.584 98.1293 162.191C98.1313 162.972 98.1333 163.752 98.1354 164.556C98.1141 169.886 98.1141 169.886 96.9999 171C95.4705 171.098 93.9367 171.128 92.4042 171.129C90.9376 171.134 90.9376 171.134 89.4414 171.139C88.3779 171.137 87.3144 171.135 86.2186 171.133C84.5929 171.134 84.5929 171.134 82.9343 171.136C80.6377 171.136 78.341 171.135 76.0443 171.13C72.5151 171.125 68.9861 171.13 65.4569 171.137C63.2317 171.136 61.0064 171.135 58.7811 171.133C57.7176 171.135 56.6541 171.137 55.5584 171.139C54.5806 171.136 53.6029 171.133 52.5956 171.129C51.7303 171.129 50.8651 171.128 49.9736 171.127C47.9999 171 47.9999 171 46.9999 170C46.8995 167.389 46.8637 164.803 46.8705 162.191C46.8687 161.374 46.867 160.556 46.8652 159.713C46.8608 156.996 46.8637 154.279 46.8671 151.563C46.8664 149.683 46.8654 147.804 46.8642 145.924C46.8627 141.98 46.8648 138.035 46.8695 134.091C46.8752 129.023 46.8719 123.955 46.8659 118.887C46.8623 115.004 46.8635 111.122 46.8661 107.239C46.8667 105.37 46.8659 103.501 46.8636 101.632C46.8611 99.0239 46.8649 96.4163 46.8705 93.8086C46.8685 93.0283 46.8664 92.248 46.8644 91.4441C46.8906 84.8759 46.8906 84.8759 52.5956 84.8706ZM58.9999 97C58.9999 117.46 58.9999 137.92 58.9999 159C67.9099 159 76.8199 159 85.9999 159C85.9999 138.54 85.9999 118.08 85.9999 97C77.0899 97 68.1799 97 58.9999 97Z" fill="url(#paint0_linear_4723_491)"/>
<path d="M107.596 30.8706C109.062 30.8659 109.062 30.8659 110.558 30.8611C111.622 30.8631 112.685 30.8651 113.781 30.8672C115.407 30.8658 115.407 30.8658 117.065 30.8643C119.362 30.8636 121.659 30.8655 123.955 30.8697C127.485 30.875 131.014 30.8697 134.543 30.8633C136.768 30.864 138.993 30.8653 141.219 30.8672C142.282 30.8652 143.346 30.8632 144.441 30.8611C145.419 30.8642 146.397 30.8674 147.404 30.8706C148.269 30.8714 149.135 30.8722 150.026 30.873C152 31 152 31 153 32C153.1 34.6115 153.136 37.1966 153.129 39.8086C153.131 40.6265 153.133 41.4443 153.135 42.2869C153.139 45.0038 153.136 47.7206 153.133 50.4375C153.133 52.317 153.134 54.1965 153.136 56.076C153.137 60.0204 153.135 63.9648 153.13 67.9092C153.125 72.9772 153.128 78.045 153.134 83.113C153.137 86.9956 153.136 90.8782 153.134 94.7608C153.133 96.63 153.134 98.4992 153.136 100.368C153.139 102.976 153.135 105.584 153.129 108.191C153.131 108.972 153.133 109.752 153.135 110.556C153.114 115.886 153.114 115.886 152 117C150.471 117.098 148.937 117.128 147.404 117.129C145.938 117.134 145.938 117.134 144.441 117.139C143.378 117.137 142.314 117.135 141.219 117.133C139.593 117.134 139.593 117.134 137.934 117.136C135.638 117.136 133.341 117.135 131.044 117.13C127.515 117.125 123.986 117.13 120.457 117.137C118.232 117.136 116.006 117.135 113.781 117.133C112.718 117.135 111.654 117.137 110.558 117.139C109.581 117.136 108.603 117.133 107.596 117.129C106.73 117.129 105.865 117.128 104.974 117.127C103 117 103 117 102 116C101.899 113.389 101.864 110.803 101.87 108.191C101.869 107.374 101.867 106.556 101.865 105.713C101.861 102.996 101.864 100.279 101.867 97.5625C101.866 95.6831 101.865 93.8036 101.864 91.9241C101.863 87.9797 101.865 84.0353 101.87 80.0909C101.875 75.0229 101.872 69.955 101.866 64.8871C101.862 61.0045 101.863 57.1219 101.866 53.2393C101.867 51.3701 101.866 49.5009 101.864 47.6317C101.861 45.0239 101.865 42.4163 101.87 39.8086C101.868 39.0283 101.866 38.248 101.864 37.4441C101.891 30.8759 101.891 30.8759 107.596 30.8706ZM114 43C114 63.46 114 83.92 114 105C122.91 105 131.82 105 141 105C141 84.54 141 64.08 141 43C132.09 43 123.18 43 114 43Z" fill="url(#paint1_linear_4723_491)"/>
<path d="M102 120C130.05 120 158.1 120 187 120C187.021 128.229 187.041 136.459 187.062 144.938C187.072 147.539 187.081 150.14 187.09 152.82C187.093 154.868 187.095 156.917 187.098 158.965C187.103 160.039 187.108 161.114 187.113 162.221C187.113 163.743 187.113 163.743 187.113 165.297C187.116 166.183 187.118 167.069 187.12 167.982C187 170 187 170 186 171C183.419 171.1 180.865 171.136 178.283 171.129C177.475 171.131 176.667 171.133 175.834 171.135C173.15 171.139 170.466 171.136 167.781 171.133C165.924 171.133 164.067 171.134 162.21 171.136C158.313 171.137 154.415 171.135 150.518 171.13C145.511 171.125 140.503 171.128 135.496 171.134C131.66 171.138 127.823 171.136 123.987 171.134C122.14 171.133 120.293 171.134 118.446 171.136C115.87 171.139 113.293 171.135 110.717 171.129C109.946 171.131 109.175 171.133 108.381 171.136C103.114 171.114 103.114 171.114 102 170C101.907 168.435 101.882 166.865 101.886 165.297C101.887 164.282 101.887 163.267 101.887 162.221C101.892 161.146 101.897 160.072 101.902 158.965C101.903 157.983 101.904 157.001 101.905 155.989C101.911 152.305 101.925 148.621 101.937 144.938C101.958 136.708 101.979 128.479 102 120ZM114 132C114 140.91 114 149.82 114 159C134.13 159 154.26 159 175 159C175 150.09 175 141.18 175 132C154.87 132 134.74 132 114 132Z" fill="url(#paint2_linear_4723_491)"/>
<path d="M20.3805 30.8644C21.5369 30.8674 21.5369 30.8674 22.7167 30.8705C23.5248 30.8687 24.3329 30.867 25.1654 30.8652C27.8499 30.8608 30.5342 30.8637 33.2186 30.8671C35.0757 30.8664 36.9328 30.8654 38.7898 30.8642C42.6872 30.8627 46.5845 30.8649 50.4818 30.8695C55.4892 30.8752 60.4966 30.8719 65.504 30.866C69.3403 30.8623 73.1766 30.8635 77.0128 30.8661C78.8597 30.8667 80.7066 30.8659 82.5535 30.8636C85.13 30.8611 87.7065 30.8649 90.2831 30.8705C91.054 30.8685 91.825 30.8665 92.6193 30.8644C97.8856 30.8856 97.8856 30.8856 98.9999 31.9999C99.0932 33.5654 99.1173 35.135 99.1134 36.7033C99.1133 37.7183 99.1132 38.7333 99.1131 39.7791C99.1079 40.8535 99.1028 41.928 99.0975 43.0351C99.0965 44.017 99.0955 44.9989 99.0945 46.0105C99.0892 49.6945 99.0753 53.3784 99.0624 57.0624C99.0418 65.2918 99.0211 73.5211 98.9999 81.9999C70.9499 81.9999 42.8999 81.9999 13.9999 81.9999C13.9793 73.7705 13.9586 65.5411 13.9374 57.0624C13.9283 54.4611 13.9192 51.8599 13.9098 49.1798C13.9069 47.1316 13.9043 45.0833 13.9022 43.0351C13.8971 41.9606 13.892 40.8861 13.8867 39.7791C13.8866 38.7641 13.8865 37.749 13.8864 36.7033C13.8841 35.8172 13.8819 34.9312 13.8796 34.0183C14.1271 29.8647 16.862 30.8786 20.3805 30.8644ZM24.9999 42.9999C24.9999 52.2399 24.9999 61.4799 24.9999 70.9999C45.4599 70.9999 65.9199 70.9999 86.9999 70.9999C86.9999 61.7599 86.9999 52.5199 86.9999 42.9999C66.5399 42.9999 46.0799 42.9999 24.9999 42.9999Z" fill="url(#paint3_linear_4723_491)"/>
<defs>
<linearGradient id="paint0_linear_4723_491" x1="72.4999" y1="84.8611" x2="72.4999" y2="171.139" gradientUnits="userSpaceOnUse">
<stop stop-color="#555451"/>
<stop offset="1" stop-color="#8D8B84"/>
</linearGradient>
<linearGradient id="paint1_linear_4723_491" x1="127.5" y1="30.8611" x2="127.5" y2="117.139" gradientUnits="userSpaceOnUse">
<stop stop-color="#555451"/>
<stop offset="1" stop-color="#8D8B84"/>
</linearGradient>
<linearGradient id="paint2_linear_4723_491" x1="144.503" y1="120" x2="144.503" y2="171.137" gradientUnits="userSpaceOnUse">
<stop stop-color="#555451"/>
<stop offset="1" stop-color="#8D8B84"/>
</linearGradient>
<linearGradient id="paint3_linear_4723_491" x1="56.4967" y1="30.7651" x2="56.4967" y2="81.9999" gradientUnits="userSpaceOnUse">
<stop stop-color="#555451"/>
<stop offset="1" stop-color="#8D8B84"/>
</linearGradient>
</defs>
</svg>

<svg width="199" height="199" fill="none" xmlns="http://www.w3.org/2000/svg"><path d="m52.596 84.87 2.962-.009 3.223.006 3.284-.003c2.297 0 4.594.001 6.89.006 3.53.005 7.059 0 10.588-.007l6.676.004 3.222-.006 2.963.01 2.622.002C97 85 97 85 98 86c.1 2.612.136 5.197.13 7.809l.005 2.478c.004 2.717.001 5.434-.002 8.151l.003 5.638c.001 3.944-.001 7.889-.006 11.833-.005 5.068-.002 10.136.004 15.204.003 3.883.002 7.765 0 11.648-.001 1.869 0 3.738.002 5.607.003 2.608-.001 5.216-.007 7.823l.006 2.365c-.02 5.33-.02 5.33-1.135 6.444-1.53.098-3.063.128-4.596.129l-2.963.01-3.222-.006-3.285.003c-2.296 0-4.593-.001-6.89-.006-3.529-.005-7.058 0-10.587.007l-6.676-.004-3.223.006-2.962-.01-2.622-.002C48 171 48 171 47 170c-.1-2.611-.136-5.197-.13-7.809l-.005-2.478c-.004-2.717-.001-5.434.002-8.15 0-1.88-.002-3.759-.003-5.639-.001-3.944 0-7.889.006-11.833.005-5.068.002-10.136-.004-15.204-.004-3.883-.002-7.765 0-11.648 0-1.869 0-3.738-.002-5.607-.003-2.608 0-5.216.007-7.823l-.007-2.365c.027-6.568.027-6.568 5.732-6.573ZM59 97v62h27V97H59Z" fill="url(#a)"/><path d="m107.596 30.87 2.962-.009 3.223.006 3.284-.003c2.297 0 4.594.002 6.89.006 3.53.005 7.059 0 10.588-.007l6.676.004 3.222-.006 2.963.01 2.622.002C152 31 152 31 153 32c.1 2.611.136 5.197.129 7.809l.006 2.478c.004 2.717.001 5.434-.002 8.15a7779.15 7779.15 0 0 1-.003 17.472c-.005 5.068-.002 10.136.004 15.204.003 3.883.002 7.765 0 11.648-.001 1.869 0 3.738.002 5.607.003 2.608-.001 5.216-.007 7.823l.006 2.365c-.021 5.33-.021 5.33-1.135 6.444a72.608 72.608 0 0 1-4.596.129l-2.963.01-3.222-.006-3.285.003c-2.296 0-4.593-.001-6.89-.006-3.529-.005-7.058 0-10.587.007l-6.676-.004-3.223.006-2.962-.01-2.622-.002C103 117 103 117 102 116a190.04 190.04 0 0 1-.13-7.809l-.005-2.478c-.004-2.717-.001-5.434.002-8.15l-.003-5.639c-.001-3.944.001-7.889.006-11.833a7004.7 7004.7 0 0 0-.004-15.204c-.004-3.883-.003-7.765 0-11.648.001-1.869 0-3.738-.002-5.607-.003-2.608.001-5.216.006-7.823l-.006-2.365c.027-6.568.027-6.568 5.732-6.573ZM114 43v62h27V43h-27Z" fill="url(#b)"/><path d="M102 120h85l.062 24.938.028 7.882.008 6.145.015 3.256v3.076l.007 2.685C187 170 187 170 186 171c-2.581.1-5.135.136-7.717.129l-2.449.006c-2.684.004-5.368.001-8.053-.002l-5.571.003c-3.897.001-7.795-.001-11.692-.006a6838.2 6838.2 0 0 0-15.022.004c-3.836.004-7.673.002-11.509 0-1.847-.001-3.694 0-5.541.002-2.576.003-5.153-.001-7.729-.007l-2.336.007c-5.267-.022-5.267-.022-6.381-1.136a76.036 76.036 0 0 1-.114-4.703l.001-3.076.015-3.256.003-2.976c.006-3.684.02-7.368.032-11.051L102 120Zm12 12v27h61v-27h-61Z" fill="url(#c)"/><path d="m20.38 30.864 2.337.006 2.448-.005c2.685-.004 5.37-.001 8.054.002 1.857 0 3.714-.002 5.57-.003 3.898-.001 7.795 0 11.693.005 5.007.006 10.015.003 15.022-.003 3.836-.004 7.673-.003 11.509 0 1.847 0 3.694 0 5.54-.002 2.577-.003 5.154 0 7.73.006l2.336-.006c5.267.022 5.267.022 6.38 1.136.094 1.565.118 3.135.114 4.703v3.076l-.016 3.256-.002 2.976c-.006 3.683-.02 7.367-.033 11.051L99 82H14l-.063-24.938-.027-7.882-.008-6.145-.015-3.256v-3.076l-.007-2.685c.247-4.153 2.982-3.14 6.5-3.154ZM25 43v28h62V43H25Z" fill="url(#d)"/><defs><linearGradient id="a" x1="72.5" y1="84.861" x2="72.5" y2="171.139" gradientUnits="userSpaceOnUse"><stop stop-color="#555451"/><stop offset="1" stop-color="#8D8B84"/></linearGradient><linearGradient id="b" x1="127.5" y1="30.861" x2="127.5" y2="117.139" gradientUnits="userSpaceOnUse"><stop stop-color="#555451"/><stop offset="1" stop-color="#8D8B84"/></linearGradient><linearGradient id="c" x1="144.503" y1="120" x2="144.503" y2="171.137" gradientUnits="userSpaceOnUse"><stop stop-color="#555451"/><stop offset="1" stop-color="#8D8B84"/></linearGradient><linearGradient id="d" x1="56.497" y1="30.765" x2="56.497" y2="82" gradientUnits="userSpaceOnUse"><stop stop-color="#555451"/><stop offset="1" stop-color="#8D8B84"/></linearGradient></defs></svg>
